img/timer.svg

<?xml version="1.0" encoding="utf-8"?>
<!-- Generator: Adobe Illustrator 17.0.0, SVG Export Plug-In . SVG Version: 6.00 Build 0)  -->
<!DOCTYPE svg PUBLIC "-//W3C//DTD SVG 1.1//EN" "http://www.w3.org/Graphics/SVG/1.1/DTD/svg11.dtd">
<svg version="1.1" id="Warstwa_1" xmlns="http://www.w3.org/2000/svg" xmlns:xlink="http://www.w3.org/1999/xlink" x="0px" y="0px"
	 width="77.5px" height="77.09px" viewBox="0 0 77.5 77.09" enable-background="new 0 0 77.5 77.09" xml:space="preserve">
<path d="M38.739,77.103c-21.369,0-38.754-17.295-38.754-38.553S17.37-0.003,38.739-0.003S77.493,17.292,77.493,38.55
	S60.108,77.103,38.739,77.103z M38.739,2.568c-19.944,0-36.17,16.141-36.17,35.982s16.226,35.983,36.17,35.983
	S74.91,58.391,74.91,38.55S58.683,2.568,38.739,2.568z M38.739,41.12H18.07c-0.713,0-1.292-0.574-1.292-1.285
	c0-0.711,0.579-1.285,1.292-1.285h19.377V8.993c0-0.711,0.579-1.285,1.292-1.285c0.713,0,1.292,0.574,1.292,1.285v30.842
	C40.031,40.546,39.452,41.12,38.739,41.12z"/>
</svg>

<svg xmlns="http://www.w3.org/2000/svg" xmlns:xlink="http://www.w3.org/1999/xlink" preserveAspectRatio="xMidYMid" width="77.5" height="77.09" viewBox="0 0 77.5 77.09">
  <defs>
    <style>
      .cls-1 {
        fill: #fff;
        fill-rule: evenodd;
      }
    </style>
  </defs>
  <path d="M38.739,77.103 C17.370,77.103 -0.015,59.808 -0.015,38.550 C-0.015,17.292 17.370,-0.003 38.739,-0.003 C60.108,-0.003 77.493,17.292 77.493,38.550 C77.493,59.808 60.108,77.103 38.739,77.103 ZM38.739,2.568 C18.795,2.568 2.569,18.709 2.569,38.550 C2.569,58.391 18.795,74.533 38.739,74.533 C58.683,74.533 74.910,58.391 74.910,38.550 C74.910,18.709 58.683,2.568 38.739,2.568 ZM38.739,41.120 L18.070,41.120 C17.357,41.120 16.778,40.546 16.778,39.835 C16.778,39.124 17.357,38.550 18.070,38.550 L37.447,38.550 L37.447,8.993 C37.447,8.282 38.026,7.708 38.739,7.708 C39.452,7.708 40.031,8.282 40.031,8.993 L40.031,39.835 C40.031,40.546 39.452,41.120 38.739,41.120 Z" class="cls-1"/>
</svg>
